assets/googlecast/original.svg

<svg fill="#4285f4" viewBox="0 0 24 24" xmlns="http://www.w3.org/2000/svg"><path d="m0 18.546v3.272h3.273a3.27 3.27 0 0 0 -3.273-3.273m0-4.364v2.182a5.456 5.456 0 0 1 5.455 5.454h2.181a7.63 7.63 0 0 0 -7.636-7.635m0-4.364v2.182c5.422 0 9.818 4.396 9.818 9.818h2.182c0-6.633-5.378-12-12-12m21.818-7.636h-19.636c-1.2 0-2.182.982-2.182 2.182v3.272h2.182v-3.272h19.636v15.272h-7.636v2.182h7.636c1.2 0 2.182-.982 2.182-2.182v-15.272c0-1.2-.982-2.182-2.182-2.182"/></svg>

<svg xmlns="http://www.w3.org/2000/svg" fill="#4285f4" viewBox="0 0 24 24"><path d="M0 18.546v3.272h3.273A3.27 3.27 0 0 0 0 18.545m0-4.364v2.182a5.456 5.456 0 0 1 5.455 5.454h2.181A7.63 7.63 0 0 0 0 14.182m0-4.364V12c5.422 0 9.818 4.396 9.818 9.818H12c0-6.633-5.378-12-12-12m21.818-7.636H2.182C.982 2.182 0 3.164 0 4.364v3.272h2.182V4.364h19.636v15.272h-7.636v2.182h7.636c1.2 0 2.182-.982 2.182-2.182V4.364c0-1.2-.982-2.182-2.182-2.182"/></svg>
